Sources/FrostedUI/Resources/Icons.xcassets/compress24.imageset/compress-24.svg

<svg width="24" height="24" viewBox="0 0 24 24" fill="none" xmlns="http://www.w3.org/2000/svg" data-fui-icon="true">
  <path
    d="M11.4697 13.9697C11.7626 13.6768 12.2374 13.6768 12.5303 13.9697L16.0303 17.4697C16.3232 17.7626 16.3232 18.2374 16.0303 18.5303C15.7374 18.8232 15.2626 18.8232 14.9697 18.5303L12.75 16.3105V22.125C12.75 22.5392 12.4142 22.875 12 22.875C11.5858 22.875 11.25 22.5392 11.25 22.125V16.3105L9.03027 18.5303C8.73738 18.8232 8.26262 18.8232 7.96973 18.5303C7.67683 18.2374 7.67683 17.7626 7.96973 17.4697L11.4697 13.9697ZM20.25 11.25C20.6642 11.25 21 11.5858 21 12C21 12.4142 20.6642 12.75 20.25 12.75H3.75C3.33579 12.75 3 12.4142 3 12C3 11.5858 3.33579 11.25 3.75 11.25H20.25ZM12 1.125C12.4142 1.125 12.75 1.46079 12.75 1.875V7.68945L14.9697 5.46973C15.2626 5.17683 15.7374 5.17683 16.0303 5.46973C16.3232 5.76262 16.3232 6.23738 16.0303 6.53027L12.5303 10.0303C12.2374 10.3232 11.7626 10.3232 11.4697 10.0303L7.96973 6.53027C7.67683 6.23738 7.67683 5.76262 7.96973 5.46973C8.26262 5.17683 8.73738 5.17683 9.03027 5.46973L11.25 7.68945V1.875C11.25 1.46079 11.5858 1.125 12 1.125Z"
    fill="currentColor"
  />
</svg>

<svg xmlns="http://www.w3.org/2000/svg" width="24" height="24" fill="none" data-fui-icon="true" viewBox="0 0 24 24"><path fill="currentColor" d="M11.47 13.97a.75.75 0 0 1 1.06 0l3.5 3.5a.75.75 0 1 1-1.06 1.06l-2.22-2.22v5.815a.75.75 0 0 1-1.5 0v-5.814l-2.22 2.22a.75.75 0 1 1-1.06-1.061zm8.78-2.72a.75.75 0 0 1 0 1.5H3.75a.75.75 0 0 1 0-1.5zM12 1.125a.75.75 0 0 1 .75.75v5.814l2.22-2.22a.75.75 0 1 1 1.06 1.061l-3.5 3.5a.75.75 0 0 1-1.06 0l-3.5-3.5a.75.75 0 1 1 1.06-1.06l2.22 2.22V1.874a.75.75 0 0 1 .75-.75"/></svg>
